X:1
T:O How He Loves Me
T:O How He Loves Me
T:Henry Lake Gilmour
T:Johnson Oatman, Jr., 1899
T:Public Domain Courtesy of the Cyber Hymnal™
C:Henry Lake Gilmour
Z:Public Domain
Z:Courtesy of the Cyber Hymnal™
%%score ( 1 2 ) ( 3 4 )
L:1/8
Q:1/4=110
M:4/4
K:Ab
V:1 treble 
V:2 treble 
V:3 bass 
V:4 bass 
V:1
 [CE]2 | [CE]2 [CA]2 [Ec]3 [Ec] | [FB]2 [FA]2 [DF]4 | ([CE] [EA]3) [EA]2 [=Dc]2 | [Ec]2 x6 | %5
w: 1.~I|have a friend, a|pre- cious friend,|O * how He|loves|
w: 2.~Why|He should come, I|can- not tell,|O * how He|loves|
w: 3.~He|died to save my|soul from death,|O * how He|loves|
w: 4.~He|walks with me a-|long life’s road,|O * how He|loves|
w: 5.~He|has a home pre-|pared for me,|O * how He|loves|
 [EB]4 [DE]2 x2 | [CE]2 [CA]2 [Ec]3 [Ec] | [FB]2 [FA]2 [DF]4 | ([CE] [EA]3) [EG]2 [EB]2 | %9
w: me; He|says His love will|ne- ver end,|O * how He|
w: me; In|my poor brok- en|heart to dwell,|O * how He|
w: me; I’ll|praise Him while He|gives me breath,|O * how He|
w: me; He|car- ries ev- ery|hea- vy load,|O * how He|
w: me; With|Him I’ll spend e-|ter- ni- ty,|O * how He|
 [EB]2 [EA]6 ||"^Refrain" (c e3) [Ae]3 [Ac] | [Ae]2 [Gd]4 z2 | ([GB] [Bd]3) [Bd]3 [GB] | %13
w: loves me.||||
w: loves me.||||
w: loves me.|O * how He|loves me,|O * how He|
w: loves me.||||
w: loves me.||||
 [Bd]2 [Ac]4 [Ae]2 | [Ae]2 [Ec]2 [Ec]3 [Ec] | [FB]2 [FA]2 [DF]4 | ([CE] [EA]3) [EG]2 [EB]2 | %17
w: ||||
w: ||||
w: loves me; I|know not why, I|on- ly cry,|O * how He|
w: ||||
w: ||||
 [EB]2 [EA]4 |] %18
w: |
w: |
w: loves me.|
w: |
w: |
V:2
 x2 | x8 | x8 | x8 | x8 | x8 | x8 | x8 | x8 | x8 || A4 x4 | x8 | x8 | x8 | x8 | x8 | x8 | x6 |] %18
V:3
 [A,,A,]2 | [A,,A,]2 [A,,E,]2 [A,,A,]3 [A,,A,] | [D,A,]2 [D,A,]2 [D,A,]4 | (A, C3) [A,C]2 [F,A,]2 | %4
 [E,A,]2 [E,G,]4 [E,G,]2 | [A,,A,]2 [A,,E,]2 [A,,A,]3 [A,,A,] | [D,A,]2 [D,A,]2 [D,A,]4 | %7
 (A, C3) [E,B,]2 [E,D]2 | [E,D]2 [A,,C]6 | (E C3) [A,C]3 [A,E] || [E,C]2 [E,B,]4 z2 | %11
 [E,E]4 [E,E]3 [E,E] | [G,E]2 [A,E]4 [A,C]2 | [A,C]2 A,2 [A,,A,]3 [A,,A,] | %14
 [D,A,]2 [D,A,]2 [D,A,]4 | (A, C3) [E,B,]2 [E,D]2 | [E,D]2 [A,,C]4 x2 | x6 |] %18
V:4
 x2 | x8 | x8 | A,4 x4 | x8 | x8 | x8 | E,4 x4 | x8 | A,4 x4 || x8 | x8 | x8 | x2 A,2 x4 | x8 | %15
 E,4 x4 | x8 | x6 |] %18

